templates/flag_icons/ht.svg

<?xml version="1.0" encoding="UTF-8" standalone="no"?>
<svg width="23px" height="17px" viewBox="0 0 23 17" version="1.1" xmlns="http://www.w3.org/2000/svg" xmlns:xlink="http://www.w3.org/1999/xlink">
    <!-- Generator: Sketch 3.7.2 (28276) - http://www.bohemiancoding.com/sketch -->
    <title>HT</title>
    <desc>Created with Sketch.</desc>
    <defs>
        <linearGradient x1="50%" y1="0%" x2="50%" y2="100%" id="linearGradient-1">
            <stop stop-color="#FFFFFF" offset="0%"></stop>
            <stop stop-color="#F0F0F0" offset="100%"></stop>
        </linearGradient>
        <rect id="path-2" x="0" y="0" width="21" height="15" rx="1.5"></rect>
        <filter x="-50%" y="-50%" width="200%" height="200%" filterUnits="objectBoundingBox" id="filter-4">
            <feOffset dx="0" dy="0.5" in="SourceAlpha" result="shadowOffsetOuter1"></feOffset>
            <feGaussianBlur stdDeviation="0.5" in="shadowOffsetOuter1" result="shadowBlurOuter1"></feGaussianBlur>
            <feColorMatrix values="0 0 0 0 0   0 0 0 0 0   0 0 0 0 0  0 0 0 0.16 0" type="matrix" in="shadowBlurOuter1"></feColorMatrix>
        </filter>
        <linearGradient x1="50%" y1="0%" x2="50%" y2="100%" id="linearGradient-5">
            <stop stop-color="#112EBC" offset="0%"></stop>
            <stop stop-color="#0620A0" offset="100%"></stop>
        </linearGradient>
        <rect id="path-6" x="0" y="0" width="21" height="7"></rect>
        <filter x="-50%" y="-50%" width="200%" height="200%" filterUnits="objectBoundingBox" id="filter-7">
            <feMorphology radius="0.25" operator="dilate" in="SourceAlpha" result="shadowSpreadOuter1"></feMorphology>
            <feOffset dx="0" dy="0" in="shadowSpreadOuter1" result="shadowOffsetOuter1"></feOffset>
            <feColorMatrix values="0 0 0 0 0   0 0 0 0 0   0 0 0 0 0  0 0 0 0.06 0" type="matrix" in="shadowOffsetOuter1"></feColorMatrix>
        </filter>
        <linearGradient x1="50%" y1="0%" x2="50%" y2="100%" id="linearGradient-8">
            <stop stop-color="#E3264A" offset="0%"></stop>
            <stop stop-color="#D20F34" offset="100%"></stop>
        </linearGradient>
        <rect id="path-9" x="0" y="7" width="21" height="8"></rect>
        <filter x="-50%" y="-50%" width="200%" height="200%" filterUnits="objectBoundingBox" id="filter-10">
            <feMorphology radius="0.25" operator="dilate" in="SourceAlpha" result="shadowSpreadOuter1"></feMorphology>
            <feOffset dx="0" dy="0" in="shadowSpreadOuter1" result="shadowOffsetOuter1"></feOffset>
            <feColorMatrix values="0 0 0 0 0   0 0 0 0 0   0 0 0 0 0  0 0 0 0.06 0" type="matrix" in="shadowOffsetOuter1"></feColorMatrix>
        </filter>
        <rect id="path-11" x="0" y="0" width="7" height="6" rx="0.5"></rect>
        <path d="M0,5 L1.10529494,4.44735253 C1.5994269,4.20028655 2.44266033,4 2.99895656,4 L4.00104344,4 C4.55275191,4 5.40472984,4.20236492 5.89470506,4.44735253 L7,5 L7,6 L0,6 L0,5 Z" id="path-13"></path>
        <mask id="mask-14" maskContentUnits="userSpaceOnUse" maskUnits="objectBoundingBox" x="0" y="0" width="7" height="2" fill="white">
            <use xlink:href="#path-13"></use>
        </mask>
        <path d="M1,3.0059123 C1,2.72650465 1.17979383,2.64383507 1.390625,2.8125 L3.109375,4.1875 C3.32511123,4.36008898 3.67979383,4.35616493 3.890625,4.1875 L5.609375,2.8125 C5.82511123,2.63991102 6,2.73071289 6,3.0059123 L6,4.4940877 C6,4.77349535 5.78515625,5 5.50230122,5 L1.49769878,5 C1.22282734,5 1,4.76928711 1,4.4940877 L1,3.0059123 Z" id="path-15"></path>
        <mask id="mask-16" maskContentUnits="userSpaceOnUse" maskUnits="objectBoundingBox" x="0" y="0" width="5" height="2.27532326" fill="white">
            <use xlink:href="#path-15"></use>
        </mask>
    </defs>
    <g id="Flag-Kit" stroke="none" stroke-width="1" fill="none" fill-rule="evenodd">
        <g id="HT">
            <g id="BF-Copy-4" transform="translate(1.000000, 1.000000)">
                <mask id="mask-3" fill="white">
                    <use xlink:href="#path-2"></use>
                </mask>
                <g id="Mask">
                    <use fill="black" fill-opacity="1" filter="url(#filter-4)" xlink:href="#path-2"></use>
                    <use fill="url(#linearGradient-1)" fill-rule="evenodd" xlink:href="#path-2"></use>
                </g>
                <g id="Rectangle-2" mask="url(#mask-3)">
                    <use fill="black" fill-opacity="1" filter="url(#filter-7)" xlink:href="#path-6"></use>
                    <use fill="url(#linearGradient-5)" fill-rule="evenodd" xlink:href="#path-6"></use>
                </g>
                <g id="Rectangle-2" mask="url(#mask-3)">
                    <use fill="black" fill-opacity="1" filter="url(#filter-10)" xlink:href="#path-9"></use>
                    <use fill="url(#linearGradient-8)" fill-rule="evenodd" xlink:href="#path-9"></use>
                </g>
                <g id="Rectangle-180" mask="url(#mask-3)">
                    <g transform="translate(7.000000, 5.000000)">
                        <mask id="mask-12" fill="white">
                            <use xlink:href="#path-11"></use>
                        </mask>
                        <use id="Mask" stroke="none" fill="url(#linearGradient-1)" fill-rule="evenodd" xlink:href="#path-11"></use>
                        <g id="Rectangle-181" stroke="none" fill="none" mask="url(#mask-12)" stroke-width="1" fill-rule="evenodd">
                            <use stroke="#366C14" mask="url(#mask-14)" fill="#AABCAE" xlink:href="#path-13"></use>
                        </g>
                        <circle id="Oval-6" stroke="none" fill="#D4B872" fill-rule="evenodd" mask="url(#mask-12)" cx="3.5" cy="2.5" r="1.5"></circle>
                        <g id="Rectangle-182" stroke="none" fill="none" mask="url(#mask-12)" stroke-width="1" fill-rule="evenodd">
                            <use stroke="#0D3488" mask="url(#mask-16)" fill="#C28321" xlink:href="#path-15"></use>
                        </g>
                        <path d="M2.17206907,1.17206907 C2.07703795,1.07703795 2.11394024,1 2.25577831,1 L4.74422169,1 C4.88548415,1 4.91935349,1.08064651 4.82793093,1.17206907 L3.67206907,2.32793093 C3.57703795,2.42296205 3.41935349,2.41935349 3.32793093,2.32793093 L2.17206907,1.17206907 Z" id="Rectangle-183" stroke="none" fill="#216C30" fill-rule="evenodd" mask="url(#mask-12)"></path>
                    </g>
                </g>
                <rect id="Depth" mask="url(#mask-3)" x="0" y="0" width="21" height="15" rx="1.5"></rect>
            </g>
        </g>
    </g>
</svg>

<svg width="23" height="17" viewBox="0 0 23 17" xmlns="http://www.w3.org/2000/svg" xmlns:xlink="http://www.w3.org/1999/xlink"><title>HT</title><defs><linearGradient x1="50%" y1="0%" x2="50%" y2="100%" id="e"><stop stop-color="#FFF" offset="0%"/><stop stop-color="#F0F0F0" offset="100%"/></linearGradient><rect id="c" width="21" height="15" rx="1.5"/><filter x="-50%" y="-50%" width="200%" height="200%" filterUnits="objectBoundingBox" id="d"><feOffset dy=".5" in="SourceAlpha" result="shadowOffsetOuter1"/><feGaussianBlur stdDeviation=".5" in="shadowOffsetOuter1" result="shadowBlurOuter1"/><feColorMatrix values="0 0 0 0 0 0 0 0 0 0 0 0 0 0 0 0 0 0 0.16 0" in="shadowBlurOuter1"/></filter><linearGradient x1="50%" y1="0%" x2="50%" y2="100%" id="i"><stop stop-color="#112EBC" offset="0%"/><stop stop-color="#0620A0" offset="100%"/></linearGradient><path id="h" d="M0 0h21v7H0z"/><filter x="-50%" y="-50%" width="200%" height="200%" filterUnits="objectBoundingBox" id="g"><feMorphology radius=".25" operator="dilate" in="SourceAlpha" result="shadowSpreadOuter1"/><feOffset in="shadowSpreadOuter1" result="shadowOffsetOuter1"/><feColorMatrix values="0 0 0 0 0 0 0 0 0 0 0 0 0 0 0 0 0 0 0.06 0" in="shadowOffsetOuter1"/></filter><linearGradient x1="50%" y1="0%" x2="50%" y2="100%" id="l"><stop stop-color="#E3264A" offset="0%"/><stop stop-color="#D20F34" offset="100%"/></linearGradient><path id="k" d="M0 7h21v8H0z"/><filter x="-50%" y="-50%" width="200%" height="200%" filterUnits="objectBoundingBox" id="j"><feMorphology radius=".25" operator="dilate" in="SourceAlpha" result="shadowSpreadOuter1"/><feOffset in="shadowSpreadOuter1" result="shadowOffsetOuter1"/><feColorMatrix values="0 0 0 0 0 0 0 0 0 0 0 0 0 0 0 0 0 0 0.06 0" in="shadowOffsetOuter1"/></filter><rect id="m" width="7" height="6" rx=".5"/><path d="M0 5l1.1-.55A5 5 0 0 1 3 4h1c.55 0 1.4.2 1.9.45L7 5v1H0V5z" id="a"/><mask id="o" x="0" y="0" width="7" height="2" fill="#fff"><use xlink:href="#a"/></mask><path d="M1 3c0-.27.18-.36.4-.19L3.1 4.2a.7.7 0 0 0 .8 0l1.7-1.4c.23-.17.4-.08.4.2v1.48a.5.5 0 0 1-.5.51h-4a.5.5 0 0 1-.5-.5V3z" id="b"/><mask id="p" x="0" y="0" width="5" height="2.28" fill="#fff"><use xlink:href="#b"/></mask></defs><g transform="translate(1 1)" fill="none" fill-rule="evenodd"><mask id="f" fill="#fff"><use xlink:href="#c"/></mask><use fill="#000" filter="url(#d)" xlink:href="#c"/><use fill="url(#e)" xlink:href="#c"/><g mask="url(#f)"><use fill="#000" filter="url(#g)" xlink:href="#h"/><use fill="url(#i)" xlink:href="#h"/></g><g mask="url(#f)"><use fill="#000" filter="url(#j)" xlink:href="#k"/><use fill="url(#l)" xlink:href="#k"/></g><g mask="url(#f)"><g transform="translate(7 5)"><mask id="n" fill="#fff"><use xlink:href="#m"/></mask><use fill="url(#e)" xlink:href="#m"/><g mask="url(#n)"><use stroke="#366C14" mask="url(#o)" fill="#AABCAE" xlink:href="#a"/></g><circle fill="#D4B872" mask="url(#n)" cx="3.5" cy="2.5" r="1.5"/><g mask="url(#n)"><use stroke="#0D3488" mask="url(#p)" fill="#C28321" xlink:href="#b"/></g><path d="M2.17 1.17c-.1-.1-.06-.17.09-.17h2.48c.15 0 .18.08.09.17L3.67 2.33c-.1.1-.25.09-.34 0L2.17 1.17z" fill="#216C30" mask="url(#n)"/></g></g><rect mask="url(#f)" width="21" height="15" rx="1.5"/></g></svg>
